src/client/pages/Main/resources/WhyMe/resources/money.svg

<?xml version="1.0" encoding="UTF-8"?> <svg xmlns="http://www.w3.org/2000/svg" xmlns:xlink="http://www.w3.org/1999/xlink" width="94" height="62" viewBox="0 0 94 62"> <title>Untitled</title> <desc>Created using Figma</desc> <g id="Canvas" transform="translate(45 22)"> <g id="store_cost"> <g id="Group"> <g id="Vector"> <use xlink:href="#path0_fill" transform="translate(-20.141 4.391)" fill="#000"></use> </g> <g id="Vector"> <use xlink:href="#path1_fill" transform="translate(-37.015 5.891)" fill="#000"></use> </g> <g id="Vector"> <use xlink:href="#path2_fill" transform="translate(21.102 5.891)" fill="#000"></use> </g> <g id="Vector"> <use xlink:href="#path3_fill" transform="translate(-44.682 -21.79)" fill="#000"></use> </g> </g> </g> </g> <defs> <path id="path0_fill" d="M 13.92 27.84C 21.595 27.84 27.84 21.595 27.84 13.92C 27.84 6.245 21.595 -1.15967e-06 13.92 -1.15967e-06C 6.245 -1.15967e-06 -7.47681e-07 6.245 -7.47681e-07 13.92C -7.47681e-07 21.595 6.245 27.84 13.92 27.84ZM 13.92 3C 19.941 3 24.84 7.898 24.84 13.92C 24.84 19.942 19.942 24.84 13.92 24.84C 7.898 24.84 3 19.942 3 13.92C 3 7.898 7.898 3 13.92 3Z"></path> <path id="path1_fill" d="M 3 0L 0 0L 0 24.84L 3 24.84L 3 0Z"></path> <path id="path2_fill" d="M 3 0L -2.62451e-06 0L -2.62451e-06 24.84L 3 24.84L 3 0Z"></path> <path id="path3_fill" d="M 93.365 -9.15527e-07L 17.116 -9.15527e-07L 17.116 8.898L 8.915 8.898L 8.915 18.624L 7.82013e-08 18.624L 7.82013e-08 61.578L 76.249 61.578L 76.249 51.852L 85.164 51.852L 85.164 42.954L 93.364 42.954L 93.364 -9.15527e-07L 93.365 -9.15527e-07ZM 73.249 58.578L 3 58.578L 3 21.624L 73.249 21.624L 73.249 58.578ZM 82.164 48.853L 76.249 48.853L 76.249 18.624L 11.915 18.624L 11.915 11.898L 82.165 11.898L 82.164 48.853ZM 90.365 39.954L 85.165 39.954L 85.165 8.898L 20.116 8.898L 20.116 3L 90.365 3L 90.365 39.954Z"></path> </defs> </svg>

<svg xmlns="http://www.w3.org/2000/svg" xmlns:xlink="http://www.w3.org/1999/xlink" width="94" height="62"><use xlink:href="#path0_fill" transform="translate(24.9 26.4)"/><use xlink:href="#path1_fill" transform="translate(8 27.9)"/><use xlink:href="#path2_fill" transform="translate(66.1 27.9)"/><use xlink:href="#path3_fill" transform="translate(.3 .2)"/><defs><path id="path0_fill" d="M14 27.8A14 14 0 1 0 13.8 0a14 14 0 0 0 0 27.8zM14 3a11 11 0 1 1-.1 21.9 11 11 0 0 1 0-21.9z"/><path id="path1_fill" d="M3 0H0v24.8h3V0z"/><path id="path2_fill" d="M3 0H0v24.8h3V0z"/><path id="path3_fill" d="M93.4 0H17v8.9H9v9.7H0v43h76.2v-9.7h9v-9h8.2V0zM73.2 58.6H3v-37h70.2v37zm9-9.7h-6V18.6H12V12h70.3v37zm8.2-9h-5.2V9h-65V3h70.2v37z"/></defs></svg>
